editor/icons/ImageTexture.svg

<svg height="16" viewBox="0 0 16 16" width="16" xmlns="http://www.w3.org/2000/svg"><path d="m2 1a1 1 0 0 0 -1 1v12a1 1 0 0 0 1 1h12a1 1 0 0 0 1-1v-12a1 1 0 0 0 -1-1zm1 2h10v8h-10zm6 2v1h-1v1h-2v1h-1v1h-1v1h2 2 2 2v-2h-1v-2h-1v-1z" fill="#e0e0e0"/></svg>

<svg height="16" viewBox="0 0 16 16" width="16" xmlns="http://www.w3.org/2000/svg"><path d="M2 1a1 1 0 0 0-1 1v12a1 1 0 0 0 1 1h12a1 1 0 0 0 1-1V2a1 1 0 0 0-1-1zm1 2h10v8H3zm6 2v1H8v1H6v1H5v1H4v1h8V8h-1V6h-1V5z" fill="#e0e0e0"/></svg>
